X:55
T:Little Black Fiy Jig
R:jig
C:Bruce Osborne - May 2002
Z:bosborne@kos.net
M:6/8
L:1/8
K:F
AB|cAA FAF|CFA cGA|BGG EGE|CEG BAB|
cAA FAF|CFA cGA|BGG EGE|CDE F:|
|:AB|caa Bgg|Aff fef|eGA BAB|gfd cAB|
caa Bgg|Aff fef|eGA Bgf|ede f:|
